X:1
T:Title
%%score 1 { 2 | 3 }
L:1/8
Q:1/4=85
M:4/4
K:Ab
V:1 treble nm="Grand Piano, Soprano"
V:2 bass nm="Choir Pad, Living in the Sunshine"
V:3 bass 
V:1
 [CE][CF] [CE]>[CA] [CG][CA][CB][CA] | [CG][CF] [CE]>[CF] [CA][CF] [DG]2 | %2
w: By~Guy~Clare~Latchaw,~1921 * * * * * * *||
 [DE][DF] [DG]>[D_G] [D=G][DA][DB][DG] | [DA][DB] [Ec]>[EA] [DF][DA] [CE]2 | %4
w: ||
 [CE][C=D] [CF]>[CE] [CA][CG][CB][CA] | [EG][EA] [FB]>[FB] [Fc][Fc] [Fd]2 | %6
w: ||
 [F=d][Fd] [Ee]>[E_d] [Ec][Ed][=Dc][DB] | [=D=A][DB] [_Dc]>[DB] [DF][DG] [C_A]2- | %8
w: ||
 [CA][Ee] [Ge]2- [Ge][Gd] [Gc]2 | [EB]2 [EA]>[EB] [Ec][CA] [CE]2- | %10
w: ||
 [CE][Ee] [Ge]2- [Ge][Gd] [Gc]2 | [EB]2 [EA]>[EG] [FA][FB] [=Ec]2- | [Ec]_E[DE]F [DE]F .[DE]2 | %13
w: |||
 DE[CE]F [CE]F .[CE]2 | CE [DF]>[EG] [FA][EB][Ec][Ee]- | [Ee][Ee] [Ge]>[Fd] [Ec][DB] [CA]2- | %16
w: |||
 [CA]6 z2 |] %17
w: |
V:2
 A,A, A,>A, A,A,A,A, | A,A, A,>A, A,A, B,2 | G,A, B,>=A, B,_A,G,B, | A,G, A,>A, A,A, A,2 | %4
 A,A, A,>A, A,A,A,A, | CC B,>B, =A,A, B,2 | A,A, G,>G, G,G,A,A, | F,A, G,>G, B,B, A,2- | %8
 A,C B,2- B,[K:treble]F E2 | D2 .C2 .A,2[K:bass] A,2- | A,C B,2- B,B,[K:treble] E2 | %11
 D2 .C2 .C2 C2- | C2[K:bass] .G,2 .G,2 .G,2 | .G,2 .A,2 .A,2 .A,2 | .A,2 A,>A, A,G,A,C- | %15
 CC B,>B, G,G, A,2- | A,6 z2 |] %17
V:3
 A,,A,, A,,>A,, A,,A,,A,,A,, | A,,A,, z2 z2 E,2 | E,E, E,>E, E,E,E,E, | E,E, A,,>C, D,F, z2 | %4
 A,,A,, A,,>A,, A,,A,,A,,A,, | A,A, D,>D, C,C, B,,2 | B,,B,, E,>E, E,E,B,,B,, | %7
 B,,B,, E,>E, E,E, A,,2- | A,,A, E,2- E,E, E,2 | E,2 .A,2 .E,2 A,,2- | A,,A, E,2- E,E, E,2 | %11
 G,2 .A,2 .F,2 C,2- | C,2 .E,2 .E,2 .E,2 | .B,,2 .A,,2 .E,2 .C,2 | .A,,2 D,>D, D,B,,A,,A,- | %15
 A,A, E,>E, E,E, A,,2- | A,,6 z2 |] %17

